X: 975
T: Hastane Önünde İncir Ağacı
C: Nida Tüfekçi
O: Turkey
F: http://compmusic.upf.edu/node/140
N: kurdi--turku--nimsofyan--hastane_onunde--akdagmadeni
N: makam= kurdi
N: form= turku
N: usul= nimsofyan = 2/4
M: 2/4
L: 1/16
K: C _B   
Q: 1/4=60
%%MIDI tuningsystem comma53
A2ef fef/g/e  | ee2d dd2=B  | c=Bc2 _3/4B/c/B/A/G2  | 
w:  ARANAĞME  |   |   | 
AB/c/BB/c/ BABA  | A3A AAA2  | A2ef fef/g/e  | 
w:   |   |  ARANAĞME  | 
ee2d dd2=B  | c=Bc2 _3/4B/c/B/A/G2  | \
w:   |   | 
AB/c/BB/c/ BABA  | 
w:   | 
AGA=B c4  | z2A=B c2c2  | cde2 e2d2  | dcd=B {B}c3z  | 
w:   |  Has ta ne  ö  |  nün *  de  in cir   |  a ğa *  *  *  cı    | 
eed2 dcd=B  | {=B}c8  | z2ef f/f/ef/g/e  | \
w:  An nem  *  a ğa  |  *  cı    |  Dok tor  bu la  | 
ee2d dd2=B  | 
w:  ma dı  *  ba na   | 
cc/=B/c2 _3/4B3/2A/Gz  | AB/c/BB/c/ BA3  | \
w:  i lâ *  *  cı    |  An nem  *  *  *  *  i lâ  | 
A6z2  | z2ef f/f/ef/g/e  | 
w:  cı    |  Dok tor  bu la  | 
ee2d dd2=B  | cc/=B/c2 _3/4B3/2A/Gz  | \
w:  ma dı  *  ba na   |  i lâ *  *  cı    | 
AB/c/BB/c/ BA3  | 
w:  An nem  *  *  *  *  i lâ  | 
A6z2  | z2A=B c2c2  | cde3/2d/ eed2  | dcd=B {B}c3z  | \
w:  cı    |  Baş ta bip  ge  |  li yor  *  *  ze hir  |  den_ a *  *  *  cı    | 
eed2 dcd=B  | 
w:  A nem  *  vay_ a  | 
{=B}c8  | z2ef fef/g/e  | ee2d dd2=B  | \
w:  *  cı    |  Ga rip  kal *  dım   |  yü re *  ği me   | 
c=Bc2 _3/4B3/2A/Gz  | 
w:  derd_ *  ol du    | 
AB/c/BB/c/ BAA2  | {A}A8  | z2ef fef/g/e  | \
w:  An nem  *  *  *  *  derd_ *  ol  |  *  du    |  Ga rip  kal *  dım   | 
ee2d dd2=B  | 
w:  yü re *  ği me   | 
c=Bc2 _3/4B3/2A/Gz  | AB/c/BB/c/ BAA2  | \
w:  derd_ *  ol du    |  An nem  *  *  *  *  derd_ *  ol  | 
{A}A8  | A2ef fef/g/e  | 
w:  *  du    |  ARANAĞME  | 
ee2d dd2=B  | c=Bc2 _3/4B/c/B/A/G2  | \
w:   |   | 
AB/c/BB/c/ BABA  | 
w:   | 
A3A AAA2  | A2ef fef/g/e  | ee2d dd2=B  | \
w:   |  ARANAĞME  |   | 
c=Bc2 _3/4B/c/B/A/G2  | 
w:   | 
AB/c/BB/c/ BABA  | AGA=B c4  | z2A=B cc3  | \
w:   |   |  Me za rı mı   | 
cde2 eed2  | 
w:  ka zın  *  ba yı  | 
dcd=B {B}c3z  | eed2 dcd=B  | {=B}c8  | \
w:  ra  dü *  *  *  ze    |  An nem  *  vay  *  dü  |  *  ze    | 
z2ef f/f/ef/g/e  | 
w:  Yö nü nü  çe  | 
ee2d dd2=B  | c=Bc2 _3/4B3/2A/Gz  | AB/c/BB/c/ BAA2  | 
w:  vi rin  *  sı la  |  dan  *  yü ze    |  An nem  *  *  *  *  vay  *  yü  | 
A6z2  | z2ef f/f/ef/g/e  | ee2d dd2=B  | \
w:  ze    |  Yö nü nü  çe  |  vi rin  *  sı la  | 
c=Bc2 _3/4B3/2A/Gz  | 
w:  dan  *  yü ze    | 
AB/c/BB/c/ BAA2  | A6z2  | z2A=B cc3  | \
w:  An nem  *  *  *  *  vay  *  yü  |  ze    |  Ben den  se lâm   | 
cded e2d2  | 
w:  söy *  len  *  sev di  | 
dcd=B {B}c3z  | e2d2 dcd=B  | {=B}c8  | \
w:  ği mi *  *  *  ze    |  Sev di ği mi  |  *  ze    | 
z2ef fef/g/e  | 
w:  Ba şı na  koy  | 
e2ed dd2=B  | c=Bc2 _3/4B3/2A/Gz  | AB/c/BB/c/ BAA2  | 
w:  sun  ka *  ra lar   |  bağ *  la sın    |  An nem  *  *  *  *  bağ *  la  | 
{A}A8  | z2ef fef/g/e  | e2ed dd2=B  | c=Bc2 _3/4B3/2A/Gz  | 
w:  *  sın    |  Ba şı na  koy  |  sun  ka *  ra lar   |  bağ *  la sın    | 
AB/c/BB/c/ BAA2  | {A}A8  | |


